src/shared/assets/character/popop-logo-grey.svg

<svg width="190" height="116" viewBox="0 0 190 116" fill="none" xmlns="http://www.w3.org/2000/svg">
<g opacity="0.1">
<path d="M3.1658 97.1844C1.39767 91.6712 9.24531 77.0549 15.3846 70.9988L28.041 94.1294C28.041 94.1294 4.93392 102.698 3.1658 97.1844Z" fill="black" fill-opacity="0.06"/>
<path d="M14.5105 70.9988C14.5105 70.9988 -3.38283 95.0023 4.47518 98.4937C9.76621 100.845 19.7492 88.0194 19.7492 88.0194" stroke="black" stroke-width="4.96079" stroke-linecap="round" stroke-linejoin="round"/>
<path d="M37.6472 17.7459C-4.33728 45.4941 20.5393 89.7658 20.5393 89.7658C20.5393 89.7658 7.88085 89.7658 9.62692 100.677C11.373 111.587 32.1558 111.151 47.8672 111.151C63.5151 111.151 71.5049 107.86 74.2888 106.714L74.3224 106.7C74.5246 111.991 100.718 113.587 133.369 112.747C172.085 111.752 172.851 92.3397 172.851 92.3397C172.851 92.3397 178.07 102.332 183.326 98.9308C191.975 93.3341 181.914 68.9121 179.16 60.9763C182.926 51.1513 181.758 20.226 146.537 7.82391C121.086 -1.13747 63.6966 0.529424 37.6472 17.7459Z" fill="black" fill-opacity="0.06"/>
<path d="M74.3224 106.7C74.5246 111.991 100.718 113.587 133.369 112.747C172.085 111.752 172.851 92.3397 172.851 92.3397C172.851 92.3397 178.07 102.332 183.326 98.9308C191.975 93.3341 181.914 68.9121 179.16 60.9763C182.926 51.1513 181.758 20.226 146.537 7.82391C121.086 -1.13747 63.6966 0.529424 37.6472 17.7459C-4.33728 45.4941 20.5393 89.7658 20.5393 89.7658C20.5393 89.7658 7.88085 89.7658 9.62692 100.677C11.373 111.587 32.1558 111.151 47.8672 111.151C63.5786 111.151 71.5695 107.833 74.3224 106.7ZM74.3224 106.7C73.947 96.8745 75.8247 92.3397 94.5961 92.3397" stroke="black" stroke-width="4.96079" stroke-linecap="round" stroke-linejoin="round"/>
<path d="M79.7928 61.3082C79.7928 61.3082 83.7676 61.3677 88.0239 61.0335C92.2803 60.6993 93.5195 58.157 93.5195 58.157" stroke="black" stroke-width="4.4865" stroke-linecap="round" stroke-linejoin="round"/>
<circle cx="54.185" cy="50.2609" r="11.4834" fill="white" stroke="black" stroke-width="4.4865"/>
<ellipse cx="49.4568" cy="48.6986" rx="7.64139" ry="9.4717" fill="black"/>
<circle cx="112.522" cy="43.3982" r="9.76754" fill="white" stroke="black" stroke-width="4.4865"/>
<ellipse cx="109.095" cy="42.6407" rx="5.70629" ry="7.8224" transform="rotate(15.0268 109.095 42.6407)" fill="black"/>
</g>
</svg>

<svg xmlns="http://www.w3.org/2000/svg" fill="none" viewBox="0 0 190 116"><g opacity=".1"><path fill="#000" fill-opacity=".06" d="M3.166 97.184C1.398 91.671 9.246 77.054 15.385 71l12.656 23.13s-23.107 8.569-24.875 3.055"/><path stroke="#000" stroke-linecap="round" stroke-linejoin="round" stroke-width="4.961" d="M14.51 70.999S-3.383 95.002 4.476 98.494c5.291 2.351 15.274-10.475 15.274-10.475"/><path fill="#000" fill-opacity=".06" d="M37.647 17.746C-4.337 45.494 20.54 89.766 20.54 89.766s-12.658 0-10.912 10.911 22.529 10.474 38.24 10.474c15.648 0 23.638-3.291 26.422-4.437l.033-.014c.203 5.291 26.396 6.887 59.047 6.047 38.716-.995 39.482-20.407 39.482-20.407s5.219 9.992 10.475 6.59c8.649-5.596-1.412-30.018-4.166-37.954 3.766-9.825 2.598-40.75-32.623-53.152-25.451-8.961-82.84-7.295-108.89 9.922"/><path stroke="#000" stroke-linecap="round" stroke-linejoin="round" stroke-width="4.961" d="M74.322 106.7c.203 5.291 26.396 6.887 59.047 6.047 38.716-.995 39.482-20.407 39.482-20.407s5.219 9.992 10.475 6.59c8.649-5.596-1.412-30.018-4.166-37.954 3.766-9.825 2.598-40.75-32.623-53.152-25.451-8.961-82.84-7.295-108.89 9.922-41.984 27.748-17.108 72.02-17.108 72.02s-12.658 0-10.912 10.911 22.529 10.474 38.24 10.474 23.703-3.318 26.455-4.451m0 0c-.375-9.826 1.503-14.36 20.274-14.36"/><path stroke="#000" stroke-linecap="round" stroke-linejoin="round" stroke-width="4.487" d="M79.793 61.308s3.975.06 8.23-.275c4.257-.334 5.496-2.876 5.496-2.876"/><circle cx="54.185" cy="50.261" r="11.483" fill="#fff" stroke="#000" stroke-width="4.487"/><ellipse cx="49.457" cy="48.699" fill="#000" rx="7.641" ry="9.472"/><circle cx="112.522" cy="43.398" r="9.768" fill="#fff" stroke="#000" stroke-width="4.487"/><ellipse cx="109.095" cy="42.641" fill="#000" rx="5.706" ry="7.822" transform="rotate(15.027 109.095 42.64)"/></g></svg>
